X:55
T:Chicago, The
T:Chicago , The
M:4/4
F:http://blackrosetheband.googlepages.com/ABCTUNES.ABC May 2009
L:1/8
R:reel
K:Ador
|:\
cded cAGE | (3GAG GE G2 cd | ecgc acgc | eaag eged | 
cded cAGE | (3GAG GE G2 cd | eaag (3efg ed | cA (3BAG A2zB :| 
|:\
cdef g2ef | g2zd BG G2 | cdef gdBg | eaag aged | 
cdef ~g3e | ~a3f g2 ag | ~f3d eged |1 cABG A3B :|2 cABG A2AB || 
